packages/assets/files/nfk/images/background-illustration-dark.svg

<?xml version="1.0" encoding="utf-8"?>
<!-- Generator: Adobe Illustrator 26.0.1, SVG Export Plug-In . SVG Version: 6.00 Build 0)  -->
<svg version="1.1" xmlns="http://www.w3.org/2000/svg" xmlns:xlink="http://www.w3.org/1999/xlink" x="0px" y="0px"
	 viewBox="0 0 6388 4087" style="enable-background:new 0 0 6388 4087;" xml:space="preserve">
<style type="text/css">
	.st0{fill:#00242D;}
	.st1{opacity:0.2;}
	.st2{fill:#006275;}
	.st3{fill:#FFFFFF;}
	.st4{fill:#E3F2F7;}
	.st5{fill:#E6F1F4;}
	.st6{fill:#030B0F;}
	.st7{fill:#000F0F;}
	.st8{fill:#0085A9;}
	.st9{clip-path:url(#SVGID_00000019637084859796277590000009983440645654097595_);fill:#00242D;}
	.st10{clip-path:url(#SVGID_00000019637084859796277590000009983440645654097595_);}
	.st11{fill:#FF989B;}
	.st12{display:none;fill:#00AC79;}
	.st13{display:none;fill:#00242D;}
	.st14{fill:#1C273F;}
	.st15{fill:#2A3756;}
	.st16{fill:#DB807D;}
	.st17{fill:#FFBB46;}
	.st18{opacity:0.2;fill:#00242D;}
	.st19{opacity:0.7;}
	.st20{opacity:0.32;fill:#FFFFFF;}
	.st21{fill:#FF282E;}
	.st22{clip-path:url(#SVGID_00000119833039003113506800000002682544675818530711_);fill:#00242D;}
	.st23{clip-path:url(#SVGID_00000119833039003113506800000002682544675818530711_);}
	.st24{fill:#FFCBCD;}
	.st25{fill:#FFB2B4;}
	.st26{fill:#FF7E81;}
	.st27{display:none;fill:#FFBB46;}
	.st28{fill:#8E9093;}
	.st29{display:none;opacity:0.2;fill:#231F20;}
	.st30{display:none;}
	.st31{display:inline;fill:#006275;}
	.st32{display:inline;fill:#3A3A3A;}
	.st33{display:inline;}
	.st34{fill:#FFD690;}
	.st35{display:inline;fill:#FFD690;}
	.st36{display:inline;opacity:0.57;fill:#CECCCC;}
	.st37{display:inline;fill:#2A3756;}
	.st38{fill:#4A940D;}
	.st39{fill:#49890D;}
	.st40{display:none;fill:#E3F2F7;}
	.st41{fill:#F0F0F0;}
	.st42{fill:#DCE4E6;}
	.st43{fill:#020D10;}
	.st44{fill:#09171D;}
	.st45{clip-path:url(#SVGID_00000165937135850675484260000015459748536447797949_);fill:#00242D;}
	.st46{clip-path:url(#SVGID_00000165937135850675484260000015459748536447797949_);}
	.st47{clip-path:url(#SVGID_00000146482394633932201950000014515620874951632279_);fill:#00242D;}
	.st48{clip-path:url(#SVGID_00000146482394633932201950000014515620874951632279_);}
	.st49{clip-path:url(#SVGID_00000044156854941919152380000016971971201028132283_);fill:#00242D;}
	.st50{clip-path:url(#SVGID_00000044156854941919152380000016971971201028132283_);}
	.st51{clip-path:url(#SVGID_00000102534913700958412120000008849373528454883243_);fill:#00242D;}
	.st52{clip-path:url(#SVGID_00000102534913700958412120000008849373528454883243_);}
</style>
<g id="Bakgrunner">
	<rect class="st0" width="6388" height="4087"/>
	<g class="st1">
		<path class="st2" d="M6389,4087l0-2160.14c-507.52,0-779.75,174.92-998.5,315.46c-178.64,114.77-307.69,197.69-598.81,197.69
			c-291.12,0-420.17-82.92-598.81-197.69c-218.73-140.54-490.95-315.46-998.48-315.46c-507.5,0-779.72,174.92-998.45,315.46
			c-178.61,114.77-307.67,197.69-598.77,197.69c-291.08,0-420.14-82.92-598.74-197.68C779.71,2101.78,507.5,1926.86,0,1926.86
			L0,4087L6389,4087z"/>
	</g>
</g>
<g id="Mobil">
</g>
<g id="Data">
</g>
<g id="Mine_billetter_natt">
</g>
<g id="Mine_biletter">
</g>
<g id="Logg_inn_natt">
</g>
<g id="Logg_inn">
</g>
</svg>

<svg width="6388" height="4087" viewBox="0 0 6388 4087" fill="none" xmlns="http://www.w3.org/2000/svg">
<g clip-path="url(#clip0_2_99)">
<path d="M6388 0H0V4087H6388V0Z" fill="#00303D"/>
<path d="M6389 4087V1926.86C5881.48 1926.86 5609.25 2101.78 5390.5 2242.32C5211.86 2357.09 5082.81 2440.01 4791.69 2440.01C4500.57 2440.01 4371.52 2357.09 4192.88 2242.32C3974.15 2101.78 3701.93 1926.86 3194.4 1926.86C2686.9 1926.86 2414.68 2101.78 2195.95 2242.32C2017.34 2357.09 1888.28 2440.01 1597.18 2440.01C1306.1 2440.01 1177.04 2357.09 998.44 2242.33C779.71 2101.78 507.5 1926.86 0 1926.86V4087H6389Z" fill="#00232C"/>
</g>
<defs>
<clipPath id="clip0_2_99">
<rect width="6388" height="4087" fill="white"/>
</clipPath>
</defs>
</svg>
